**kern	**silbe
*ICvox	*
*D:	*
*M4/4	*
*clefG2	*
r;	.
=1	=1
1r	.
=2	=2
1r	.
=3	=3
1r	.
=4	=4
1r	.
=5	=5
1r	.
=6	=6
1r	.
=7	=7
1r	.
=8	=8
2r	.
4r	.
8r	.
8d	The
=9	=9
4f#	rain
8e	is
8[d	fa-
8d]	_
16e	-lling
16f#	_
8r	.
8[e	through
=10	=10
8e]	_
4d	the
4c	mist
4c	of
8[c	sor-
=11	=11
8c]	_
8c	-row
4r	.
4c	that
8B	sur-
8[d	-round-
=12	=12
8d]	_
4d	-ed
8d	me
4.r	.
8d	The
=13	=13
4f#	sun
8e	could
8[d	ne-
8d]	_
16e	-ver
16f#	_
8r	.
8[e	thaw
=14	=14
8e]	_
4d	a-
4c	-way
8r	.
8A	the
8[c	bliss
=15	=15
8c]	_
4c	that
16c	lays
16[d	_
4d]	_
8d	a-
8e	-round
=16	=16
4d	_
8d	me
8r	.
8r	.
8d	Let
8e	it
8[f#	rain
=17	=17
8f#]	_
8r	.
4r	.
8r	.
8d	Let
8e	it
16f#	rain
16e	_
=18	=18
8d	_
8r	.
4r	.
8r	.
8d	Let
8d	your
8[e	love
=19	=19
4e]	_
4e	rain
4d	down
8B	on
8[A	me
=20	=20
8A]	_
8r	.
4r	.
8r	.
8d	Let
8e	it
8[f#	rain
=21	=21
8f#]	_
8r	.
4r	.
8r	.
8d	Let
8e	it
16f#	rain
16e	_
=22	=22
4d	_
4r	.
8r	.
8d	Let
8d	it
8[e	rain
=23	=23
4.e]	_
8d	_
4.d	rain
8[d	rain
=24	=24
8d]	_
8r	.
4r	.
4.r	.
8d	Her
=25	=25
4f#	life
8e	was
8[d	like
8d]	_
16e	a
16f#	_
8r	.
8[e	de-
=26	=26
8e]	_
4d	-sert
4c	flo-
4A	-wer
8r	.
=27	=27
4c	burn-
8c	-ing
8[d	in
8d]	_
4d	the
8[d	sun
=28	=28
8d]	_
8r	.
4r	.
4r	.
8r	.
8d	Un-
=29	=29
8f#	-til
4e	I
8[d	found
8d]	_
16e	the
16[f#	_
8f#]	_
8[e	way
=30	=30
8e]	_
4d	to
4c	love
8r	.
8r	.
8A	it's
=31	=31
4c	har-
8c	-der
8[d	said
8d]	_
16d	than
16[e	_
8e]	_
8[d	done
=32	=32
8d]	_
8r	.
4r	.
8r	.
8d	Let
8e	it
8[f#	rain
=33	=33
8f#]	_
8r	.
4r	.
8r	.
8d	Let
8e	it
16f#	rain
16e	_
=34	=34
4.d	_
8r	.
8r	.
8d	Let
8d	your
8[e	love
=35	=35
4e]	_
4e	rain
4d	down
8B	on
8[A	me
=36	=36
8A]	_
8r	.
4r	.
8r	.
8d	Let
8e	it
8[f#	rain
=37	=37
8f#]	_
8r	.
4r	.
8r	.
8d	Let
8e	it
16f#	rain
16e	_
=38	=38
4d	_
4r	.
8r	.
8d	Let
8d	it
8[e	rain
=39	=39
2e]	_
2d	rain
=40	=40
2c#	rain
2r	.
=41	=41
1r	.
=42	=42
1r	.
=43	=43
1r	.
=44	=44
1r	.
=45	=45
1r	.
=46	=46
1r	.
=47	=47
1r	.
=48	=48
1r	.
=49	=49
1r	.
=50	=50
1r	.
=51	=51
1r	.
=52	=52
1r	.
=53	=53
1r	.
=54	=54
1r	.
=55	=55
1r	.
=56	=56
1r	.
=57	=57
1r	.
=58	=58
8f#	Now
4e	I
8[d	know
8d]	_
16e	the
16[f#	_
8f#]	_
8[e	se-
=59	=59
8e]	_
4d	-cret
4c	there
4A	is
8[c	no-
=60	=60
8c]	_
4c	-thing
8[d	that
8d]	_
4e	I
8[d	lack
=61	=61
8d]	_
8r	.
4r	.
2r	.
=62	=62
8f#	If
4e	I
8[d	give
8d]	_
16e	my
16[f#	_
8f#]	_
8[e	love
=63	=63
8e]	_
4d	to
4c	you
8r	.
8r	.
8A	you'll
=64	=64
4c	sure-
8c	-ly
8[d	give
8d]	_
16d	it
16[e	_
8e]	_
8[d	back
=65	=65
8d]	_
8r	.
4r	.
8r	.
8d	Let
8e	it
8[f#	rain
=66	=66
8f#]	_
8r	.
4r	.
8r	.
8d	Let
8e	it
16f#	rain
16e	_
=67	=67
4d	_
4r	.
8r	.
8d	Let
8d	your
8[e	love
=68	=68
4e]	_
16e	rain
16f#	_
8e	_
4d	down
8B	on
8[A	me
=69	=69
8A]	_
8r	.
4r	.
8r	.
8d	Let
8e	it
8[f#	rain
=70	=70
8f#]	_
8r	.
4r	.
8r	.
8d	Let
8e	it
16f#	rain
16e	_
=71	=71
4d	_
4r	.
8r	.
8d	Let
8d	it
8[e	rain
=72	=72
4.e]	_
8d	_
4.d	rain
8[d	rain
=73	=73
8d]	_
4.r	.
8r	.
8d	Let
8e	it
8[f#	rain
=74	=74
8f#]	_
8r	.
4r	.
8r	.
8d	Let
8e	it
16f#	rain
16e	_
=75	=75
4d	_
4r	.
8r	.
8d	Let
8d	your
8[e	love
=76	=76
4e]	_
16e	rain
16f#	_
8e	_
4d	down
8B	on
8[A	me
=77	=77
8A]	_
8r	.
4r	.
8r	.
8d	Let
8e	it
8[f#	rain
=78	=78
8f#]	_
8r	.
4r	.
8r	.
8d	Let
8e	it
16f#	rain
16e	_
=79	=79
4d	_
4r	.
8r	.
8d	Let
8d	it
8[e	rain
=80	=80
2e]	_
2d	rain
=81	=81
1c#	rain
=82	=82
1r	.
=83	=83
1r	.
=84	=84
1r	.
=85	=85
1r	.
=86	=86
1r	.
=87	=87
1r	.
=88	=88
1r	.
=89	=89
1r	.
=90	=90
1r	.
=91	=91
1r	.
=92	=92
1r	.
=93	=93
2..e	Hey
8d	_
=94	=94
1r	.
=95	=95
2[f#	Hey
8f#]	_
8g	_
8f#	_
8e	_
=96	=96
1r	.
=97	=97
2..e	Hey
8[d	_
=98	=98
8d]	_
8r	.
4r	.
2r	.
=99	=99
2[f#	Hey
8f#]	_
8g	_
8f#	_
8[e	_
=100	=100
4e]	_
4r	.
2r	.
=101	=101
2..e	Hey
8[d	_
=102	=102
8d]	_
8r	.
4r	.
2r	.
=103	=103
2[f#	Hey
8f#]	_
8g	_
8f#	_
8[e	_
=104	=104
8e]	_
8r	.
4r	.
2r	.
=105	=105
2..e	Hey
8d	_
=106	=106
1r	.
=107	=107
2[f#	Hey
8f#]	_
8g	_
8f#	_
8[e	_
=108	=108
8e]	_
8r	.
4r	.
2r	.
=109	=109
1r	.
=110	=110
1r	.
=111	=111
1r	.
=112	=112
1r	.
=113	=113
1r	.
=114	=114
1r	.
=115	=115
1r	.
=116	=116
1r	.
=117	=117
1r	.
=118	=118
1r	.
=119	=119
1r	.
=120	=120
1r	.
=121	=121
1r	.
=122	=122
1r	.
=123	=123
1r	.
=124	=124
1r	.
=125	=125
1r	.
=126	=126
1r	.
=127	=127
1r	.
=128	=128
1r	.
=129	=129
1r	.
=130	=130
1r	.
=131	=131
1r	.
=132	=132
1r	.
=133	=133
1r	.
=134	=134
1r	.
=135	=135
1r	.
=136	=136
1r	.
=137	=137
1r	.
=138	=138
1r	.
=139	=139
1r	.
=140	=140
1r	.
=141	=141
1r	.
=142	=142
1r	.
=143	=143
1r	.
=144	=144
1r	.
=145	=145
1r	.
=146	=146
1r	.
=147	=147
1r	.
=148	=148
1r	.
=149	=149
1r	.
=150	=150
1r	.
=151	=151
1r	.
=152	=152
1r	.
=153	=153
1r	.
r;	.
r;	.
*-	*-
!!!ENC: Nathaniel Condit-Schultz